src/svgs/logo.svg

<svg fill="none" height="69" viewBox="0 0 84 69" width="84" xmlns="http://www.w3.org/2000/svg"><path d="m0 28.39c-.00000064-6.0161 1.91116-11.8768 5.45777-16.7363 3.54661-4.85962 8.54533-8.46691 14.27493-10.3015 5.7296-1.83458 11.8938-1.801599 17.6035.09419 5.7096 1.89578 10.6694 5.55636 14.1638 10.45361-4.8281.6839-9.3985 2.6003-13.2705 5.5643s-6.915 6.8757-8.8355 11.3579-2.6537 9.3836-2.129 14.2315c.5248 4.848 2.2899 9.4789 5.125 13.4463-1.3246.1928-2.6614.2898-4 .29-7.5304-.0026-14.7515-2.996-20.07537-8.3217s-8.31463047-12.5479-8.31463-20.0783z" fill="#00acd4"/><path d="m28.39 0h-28.39v28.39z" fill="#00acd4"/><path d="m27.0997 40.0004c-.0002-6.8374 2.4682-13.445 6.9511-18.6077s10.679-8.5334 17.4489-9.4923c2.8351 3.9674 4.6001 8.5983 5.1249 13.4463.5248 4.8479-.2084 9.7493-2.1289 14.2315s-4.9635 8.3939-8.8355 11.3579-8.4425 4.8804-13.2705 5.5643c-3.45-4.8092-5.3006-10.5814-5.29-16.5z" fill="#2b4570"/><g fill="#ff8600"><path d="m56.7603 28.3892c.0121-5.9142-1.8349-11.6827-5.2799-16.49 1.3248-.1896 2.6616-.2832 4-.28 4.8673.0017 9.6525 1.2548 13.896 3.639s7.8028 5.8193 10.336 9.9755c2.5332 4.1563 3.9553 8.894 4.1297 13.7582.1744 4.8643-.9047 9.6917-3.1338 14.0187-2.229 4.327-5.5331 8.0082-9.595 10.6902-4.0618 2.6819-8.745 4.2745-13.5997 4.6248-4.8548.3503-9.7181-.5534-14.1229-2.6245-4.4048-2.071-8.2032-5.2397-11.0303-9.2019 6.7715-.9591 12.9689-4.3313 17.4521-9.496 4.4831-5.1648 6.9504-11.7749 6.9478-18.614z"/><path d="m53.1504 68.3993h30.37v-30.37z"/></g></svg>

<svg width="84" height="69" viewBox="0 0 84 69" fill="none" xmlns="http://www.w3.org/2000/svg">
<path d="M0 28.39C-6.42543e-07 22.3739 1.91116 16.5132 5.45777 11.6537C9.00438 6.79408 14.0031 3.18679 19.7327 1.3522C25.4623 -0.48238 31.6265 -0.449399 37.3362 1.44639C43.0458 3.34217 48.0056 7.00275 51.5 11.9C46.6719 12.5839 42.1015 14.5003 38.2295 17.4643C34.3575 20.4283 31.3145 24.34 29.394 28.8222C27.4735 33.3044 26.7403 38.2058 27.265 43.0537C27.7898 47.9017 29.5549 52.5326 32.39 56.5C31.0654 56.6928 29.7286 56.7898 28.39 56.79C20.8596 56.7874 13.6385 53.794 8.31463 48.4683C2.99076 43.1426 -4.66823e-07 35.9204 0 28.39H0Z" fill="#00ACD4"/>
<path d="M28.39 0H0V28.39L28.39 0Z" fill="#00ACD4"/>
<path d="M27.0997 40.0004C27.0995 33.163 29.5679 26.5554 34.0508 21.3927C38.5337 16.23 44.7298 12.8593 51.4997 11.9004C54.3348 15.8678 56.0998 20.4987 56.6246 25.3467C57.1494 30.1946 56.4162 35.096 54.4957 39.5782C52.5752 44.0604 49.5322 47.9721 45.6602 50.9361C41.7882 53.9001 37.2177 55.8165 32.3897 56.5004C28.9397 51.6912 27.0891 45.919 27.0997 40.0004V40.0004Z" fill="#2B4570"/>
<path d="M56.7603 28.3892C56.7724 22.475 54.9254 16.7065 51.4804 11.8992C52.8052 11.7096 54.142 11.616 55.4804 11.6192C60.3477 11.6209 65.1329 12.874 69.3764 15.2582C73.6199 17.6424 77.1792 21.0775 79.7124 25.2337C82.2456 29.39 83.6677 34.1277 83.8421 38.9919C84.0165 43.8562 82.9374 48.6836 80.7083 53.0106C78.4793 57.3376 75.1752 61.0188 71.1133 63.7008C67.0515 66.3827 62.3683 67.9753 57.5136 68.3256C52.6588 68.6759 47.7955 67.7722 43.3907 65.7011C38.9859 63.6301 35.1875 60.4614 32.3604 56.4992C39.1319 55.5401 45.3293 52.1679 49.8125 47.0032C54.2956 41.8384 56.7629 35.2283 56.7603 28.3892V28.3892Z" fill="#FF8600"/>
<path d="M53.1504 68.3993H83.5204V38.0293L53.1504 68.3993Z" fill="#FF8600"/>
</svg>
